icons/svgs/gauge-outline.svg

<svg width="24" height="24" viewBox="0 0 24 24" fill="none" xmlns="http://www.w3.org/2000/svg">
<path d="M12 3.875C9.07031 3.875 6.41406 5.4375 4.92969 7.9375C3.48438 10.4766 3.48438 13.5625 4.92969 16.0625C6.41406 18.6016 9.07031 20.125 12 20.125C14.8906 20.125 17.5469 18.6016 19.0312 16.0625C20.4766 13.5625 20.4766 10.4766 19.0312 7.9375C17.5469 5.4375 14.8906 3.875 12 3.875ZM12 22C8.40625 22 5.125 20.125 3.32812 17C1.53125 13.9141 1.53125 10.125 3.32812 7C5.125 3.91406 8.40625 2 12 2C15.5547 2 18.8359 3.91406 20.6328 7C22.4297 10.125 22.4297 13.9141 20.6328 17C18.8359 20.125 15.5547 22 12 22ZM14.1875 15.75C14.1875 16.9609 13.1719 17.9375 12 17.9375C10.7891 17.9375 9.8125 16.9609 9.8125 15.75C9.8125 14.8906 10.3203 14.1484 11.0625 13.7969V6.6875C11.0625 6.17969 11.4531 5.75 12 5.75C12.5078 5.75 12.9375 6.17969 12.9375 6.6875V13.7969C13.6406 14.1484 14.1875 14.8906 14.1875 15.75ZM8.25 9.5C7.54688 9.5 7 8.95312 7 8.25C7 7.58594 7.54688 7 8.25 7C8.91406 7 9.5 7.58594 9.5 8.25C9.5 8.95312 8.91406 9.5 8.25 9.5ZM7.625 12C7.625 12.7031 7.03906 13.25 6.375 13.25C5.67188 13.25 5.125 12.7031 5.125 12C5.125 11.3359 5.67188 10.75 6.375 10.75C7.03906 10.75 7.625 11.3359 7.625 12ZM17.625 13.25C16.9219 13.25 16.375 12.7031 16.375 12C16.375 11.3359 16.9219 10.75 17.625 10.75C18.2891 10.75 18.875 11.3359 18.875 12C18.875 12.7031 18.2891 13.25 17.625 13.25ZM17 8.25C17 8.95312 16.4141 9.5 15.75 9.5C15.0469 9.5 14.5 8.95312 14.5 8.25C14.5 7.58594 15.0469 7 15.75 7C16.4141 7 17 7.58594 17 8.25Z" fill="black"/>
</svg>

<svg xmlns="http://www.w3.org/2000/svg" width="24" height="24" fill="currentColor" class="icon-gauge-outline" viewBox="0 0 24 24">
  <mask id="a" width="21" height="20" x="1" y="2" maskUnits="userSpaceOnUse" style="mask-type:alpha">
    <path d="M12 3.875c-2.93 0-5.586 1.563-7.07 4.063-1.446 2.539-1.446 5.625 0 8.125A8.13 8.13 0 0 0 12 20.125c2.89 0 5.547-1.523 7.031-4.062 1.446-2.5 1.446-5.586 0-8.125-1.484-2.5-4.14-4.063-7.031-4.063M12 22c-3.594 0-6.875-1.875-8.672-5-1.797-3.086-1.797-6.875 0-10C5.125 3.914 8.406 2 12 2c3.555 0 6.836 1.914 8.633 5 1.797 3.125 1.797 6.914 0 10A9.93 9.93 0 0 1 12 22m2.188-6.25c0 1.21-1.016 2.188-2.188 2.188a2.184 2.184 0 0 1-2.187-2.188c0-.86.507-1.602 1.25-1.953v-7.11c0-.507.39-.937.937-.937a.95.95 0 0 1 .938.938v7.109c.703.351 1.25 1.094 1.25 1.953M8.25 9.5C7.547 9.5 7 8.953 7 8.25 7 7.586 7.547 7 8.25 7c.664 0 1.25.586 1.25 1.25 0 .703-.586 1.25-1.25 1.25M7.625 12c0 .703-.586 1.25-1.25 1.25-.703 0-1.25-.547-1.25-1.25 0-.664.547-1.25 1.25-1.25.664 0 1.25.586 1.25 1.25m10 1.25c-.703 0-1.25-.547-1.25-1.25 0-.664.547-1.25 1.25-1.25.664 0 1.25.586 1.25 1.25 0 .703-.586 1.25-1.25 1.25m-.625-5c0 .703-.586 1.25-1.25 1.25-.703 0-1.25-.547-1.25-1.25 0-.664.547-1.25 1.25-1.25.664 0 1.25.586 1.25 1.25"/>
  </mask>
  <g mask="url(#a)">
    <path d="M0 0h24v24H0z"/>
  </g>
</svg>
